packages/tokens/icons/coveoCoveo/size24Px.svg

<svg viewBox="0 0 24 24" fill="none" xmlns="http://www.w3.org/2000/svg" width="1em" height="1em"><path d="M21.7853 14.19L21.4073 13.551C21.0023 13.992 20.3723 14.307 19.5533 14.307C18.2213 14.307 17.2403 13.344 17.2403 11.886C17.2403 10.428 18.2123 9.465 19.5533 9.465C20.4173 9.465 21.1103 9.915 21.3533 10.221L21.7223 9.519C21.3803 9.186 20.6783 8.7 19.5173 8.7C17.7353 8.7 16.3403 9.969 16.3403 11.904C16.3403 13.839 17.6993 15.108 19.5083 15.108C20.6873 15.108 21.3983 14.622 21.7853 14.19Z" fill="currentColor"/><path d="M15.2589 11.211C15.2589 10.428 14.8989 9.76202 14.4309 9.33002C13.9449 8.88002 13.2249 8.52002 12.1269 8.52002C10.3449 8.52002 8.74288 9.87902 8.74288 11.841C8.74288 13.812 10.1469 15.09 11.9379 15.09C13.4409 15.09 14.1429 14.595 14.4579 14.415L14.2239 13.947C13.8549 14.118 13.1889 14.496 12.0549 14.496C10.4889 14.496 9.44488 13.461 9.44488 11.841C9.44488 10.23 10.6329 9.11402 12.1539 9.11402C13.6749 9.11402 14.5929 10.005 14.5929 11.265C14.5929 12.354 13.9629 13.002 13.5129 13.002C13.1619 13.002 13.1979 12.696 13.2879 12.354L13.8729 10.158H13.1349L13.0629 10.392C13.0629 10.392 12.8019 10.005 12.0729 10.005C10.9389 10.005 10.1919 11.121 10.1919 12.219C10.1919 13.308 10.8759 13.65 11.3889 13.65C11.9019 13.65 12.2799 13.29 12.4599 13.11C12.5319 13.434 12.8019 13.65 13.2699 13.65C13.7199 13.65 14.2239 13.425 14.5929 13.038C14.9799 12.642 15.2589 12.012 15.2589 11.211ZM12.9189 10.977L12.6309 12.039C12.4689 12.669 12.0639 12.966 11.6499 12.966C11.2449 12.966 10.9839 12.687 10.9839 12.147C10.9839 11.751 11.1369 11.337 11.3349 11.076C11.5239 10.833 11.7759 10.635 12.1719 10.635C12.6669 11.103 12.7659 10.752 12.9189 10.977Z" fill="currentColor"/><path d="M7.78532 14.19L7.40732 13.551C7.00232 13.992 6.37232 14.307 5.55332 14.307C4.22132 14.307 3.24032 13.344 3.24032 11.886C3.24032 10.428 4.21232 9.465 5.55332 9.465C6.41732 9.465 7.11032 9.915 7.35332 10.221L7.72232 9.519C7.38032 9.186 6.67832 8.7 5.51732 8.7C3.73532 8.7 2.34032 9.969 2.34032 11.904C2.34032 13.839 3.69932 15.108 5.50832 15.108C6.68732 15.108 7.39832 14.622 7.78532 14.19Z" fill="currentColor"/></svg>

<svg xmlns="http://www.w3.org/2000/svg" fill="none" viewBox="0 0 24 24" width="1em" height="1em"><path fill="currentColor" d="m21.785 14.19-.378-.639c-.405.441-1.035.756-1.854.756-1.332 0-2.313-.963-2.313-2.421 0-1.458.972-2.421 2.313-2.421.864 0 1.557.45 1.8.756l.37-.702c-.343-.333-1.045-.819-2.206-.819-1.782 0-3.177 1.269-3.177 3.204 0 1.935 1.36 3.204 3.168 3.204 1.18 0 1.89-.486 2.277-.918Zm-6.526-2.979c0-.783-.36-1.449-.828-1.881-.486-.45-1.206-.81-2.304-.81-1.782 0-3.384 1.359-3.384 3.321 0 1.971 1.404 3.249 3.195 3.249 1.503 0 2.205-.495 2.52-.675l-.234-.468c-.37.171-1.035.549-2.17.549-1.565 0-2.61-1.035-2.61-2.655 0-1.611 1.189-2.727 2.71-2.727 1.52 0 2.439.891 2.439 2.151 0 1.089-.63 1.737-1.08 1.737-.351 0-.315-.306-.225-.648l.585-2.196h-.738l-.072.234s-.261-.387-.99-.387c-1.134 0-1.881 1.116-1.881 2.214 0 1.089.684 1.431 1.197 1.431s.89-.36 1.07-.54c.073.324.343.54.81.54.45 0 .955-.225 1.324-.612.387-.396.666-1.026.666-1.827Zm-2.34-.234-.288 1.062c-.162.63-.567.927-.981.927-.405 0-.666-.279-.666-.819 0-.396.153-.81.35-1.071.19-.243.442-.441.838-.441.495.468.594.117.747.342ZM7.785 14.19l-.378-.639c-.405.441-1.035.756-1.854.756-1.332 0-2.313-.963-2.313-2.421 0-1.458.972-2.421 2.313-2.421.864 0 1.557.45 1.8.756l.37-.702C7.38 9.186 6.677 8.7 5.516 8.7c-1.782 0-3.177 1.269-3.177 3.204 0 1.935 1.36 3.204 3.168 3.204 1.18 0 1.89-.486 2.277-.918Z"/></svg>
